X:1
T:Voiant souffir
T:Voiant souffrir
T:Cosson
T:Source : Il primo libro di madrigali a 3 voci---Venetia---A.Gardano---1559. Editor : André Vierendeels (28/10/14).
T:Notes : Original clefs : C4, C4, F4 Original note values have been halved Editorial accidentals above the staff Square brackets indicate ligatures
C:Cosson
%%score [ 1 2 3 ]
L:1/8
Q:1/4=90
M:2/2
K:F
V:1 treble-8 nm="Tenor 1" snm="T 1"
V:2 treble-8 nm="Tenor 2" snm="T 2"
V:3 bass nm="Bass" snm="B"
V:1
 z8 | z8 | z8 | F6 G2 | A4 B4- | B2 AG AG FE | F4 z2 G2 | G2 G2 A2 F2 | B4 G2 A2- | AG FE D2 G2 | %10
w: |||Voi- ant|souf- rir|_ _ _ _ _ _ _|* cel-|le qui me tour-|men- * *||
 E2 A2 A2 A2 | B2 G2 c3 B | A2 GF G2 A2- | AG F3 E/D/ E2 | F4 z2 F2 | E2 D2 FE FG | A2 B4 AG | %17
w: te, cel- le qui|me tour- men- *|||te, iay|ou- bli- e _ _ _|_ mon _ _|
 F4 z2 A2 | A2 A2 G2 F2 | E2 G2 FE FG | A4 A2 B2- | B2 A4 G2 | A4 z2 A2- | A2 G2 F4 | E4 z2 G2 | %25
w: mal pour|con- so- ler le|sien, pour con- * * *|* so- ler|_ le _|sien car|_ son en-|nuy plus|
 G2 G2 F2 D2 | F4 E4- | E2 DC D4 | C8- | C8 | z2 C2 C2 C2 | F4 G4 | A4 B4- | B2 AG AG FE | %34
w: fort me con- ten-|||te|_|que cel- luy|la _|_ _||
 F4 z2 G2 | G2 G2 A2 F2 | B4 G2 A2- | AG FE D2 G2 | E2 A2 A2 A2 | B2 G2 c3 B | A2 GF G2 A2- | %41
w: * que|pour el- le sous-|tien, _ _|_ _ _ _ _ _|* que pour el-|le sous- tien _|_ _ _ _ _|
 AG F4 E2 | F2 C2 C2 C2 | F4 G4 | A4 B4- | B2 AG AG FE | F4 z2 G2 | G2 G2 A2 F2 | B4 G2 A2- | %49
w: |* que cel- luy|la _|_ _||* que|pour el- le sous-|tien, _ _|
 AG FE D2 G2 |"^-natural" E2 A2 A2 A2 | B2 G2 c3 B | A2 GF G2 A2- | AG F4 E2 | F8 |] %55
w: _ _ _ _ _ _|* que pour el-|le sous- tien, _|_ _ _ _ sous-||tien.|
V:2
 C6 D2 | E4 F4- | F4 E4 | z2 D2 D2 D2 | E2 C2 G4- | G2 E2 E2 A2 | AA B2 G2 c2 | d2 c2 c2 z d | %8
w: Voi- ant|souf- *|* frir|cel- le qui|me tour- men-|* te, cel- le|qui me tour- men- *|* * te, cel-|
"^b" d2 d2 ed cB | A2 d4 B2 | c3 B AG F2 | G3 F ED C2 | c4 c2 c2 | A2 B2 G4 | F2 c2 B2 A2 | %15
w: le qui me _ _ _|_ tour- *|men- * * * *|* * * * te,|cel- le qui|me tour- men-|te, iay ou- bli-|
 c2 d2 c2 B2 | c2 d4 cB | A4 z4 | z8 | z4 z2 F2- | F2 E2 F4- | F2 F2 E2 D2 | E2 FG AB c2- | %23
w: e mon mal _|_ _ _ _|||pour-|_ _ con-|* so- ler le|sien, car _ _ _ _|
"^b" cd e3 d d2- | d2 cB c4 | z2 d2 d2 d2 | c2 A2 c2 GA | BG c4 B2 | c3 B A2 G2- | GF F4 E2 | %30
w: _ _ son _ en-|* * * nuy|plus fort me|con- * ten- * *||||
 F2 c2 cB AG | AG FE D4 | E2 F2 G4- | G2 E2 E2 A2 | AA B2 G2 c2 | d2 c2 c2 z d |"^b" d2 d2 ed cB | %37
w: te, me con- * * *|* * * * ten-|te que cel-|* luy la que|pour el- le sous- *|* * tien, que|pour el- le _ _ _|
 A2 d4 B2 | c3 B AG F2 | G3 F ED C2 | c4 c2 c2 | A2 B2 G4 | F2 c3 B AG | AG FE D4 | E2 F2 G4- | %45
w: _ sous- *|tien, _ _ _ _|_ _ _ _ _|que pour el-|le sous- *|tien, sous- * * *|tien, _ _ _ _|_ que cel-|
 G2 E2 E2 A2 | AA B2 G2 c2 | d2 c2 c2 z d |"^b" d2 d2 ed cB | A2 d4 B2 | c3 B AG F2 | G3 F ED C2 | %52
w: * luy la que|pour el- le sous- *|* * tien, que|pour el- le _ _ _|_ sous- *|tien, _ _ _ _|_ _ _ _ _|
 c4 c2 c2 | A2 B2 G4 | F8 |] %55
w: que pour el-|le sous- *|tien.|
V:3
 z8 | z4 F,,4- | F,,2 G,,2 A,,4 | B,,8 | A,,4 G,,4 | z2 C,2 C,2 C,2 | D,2 B,,2 C,3 B,,/A,,/ | %7
w: |Voi-|* ant _|_|souf- frir|cel- le qui|me tour- men- * *|
 B,,2 C,2 F,,2 B,,2 | B,,2 B,,2 C,2 A,,2 | D,2 D,D, D,D, E,2 | C,2 F,3 E, D,C, | %11
w: * * te, cel-|le qui me tour-|men- te, cel- le qui me|tour- men- * * *|
 B,,2 C,3 B,, A,,G,, | F,,2 C,2 C,2 C,2 | D,3 B,, C,4 | F,,4 z4 | z4 z2 B,,2 | A,,2 G,,2 B,,2 C,2 | %17
w: |te, cel- le qui|me tour- men-|te,|iay|ou- bli- e mon|
 D,2 D,4 D,2 | D,2 C,2 B,,2 A,,2 | C,2 B,,A,, B,,C, D,2- | D,2 C,2 D,2 D,2 | D,2 D,2 C,2 B,,2 | %22
w: mal pour con-|so- ler le sien,|le _ _ _ _ _|_ _ sien, pour|con- so- ler le|
 A,,2 D,4 A,,2 | C,4 D,4 | A,,2 C,2 C,2 C,2 | B,,2 G,,2 B,,4 | A,,2 F,,G,, A,,B,, C,2 | G,,8 | %28
w: sien, car son|en- *|nuy plus fort me|con- * ten-||te,|
 z2 C,2 C,2 C,2 | A,,2 F,,2 C,4 | F,,4 z2 F,,2 | F,,2 F,,2 B,,4 | A,,4 G,,4 | z2 C,2 C,2 C,2 | %34
w: plus fort me|con- * ten-|te que|cel- luy la|_ _|que pour el-|
 D,2 B,,2 C,3 B,,/A,,/ | B,,2 C,2 F,,2 B,,2 | B,,2 B,,2 C,2 A,,2 | D,2 z D, D,D, _E,2 | %38
w: le sous- tien, _ _|_ _ _ _||* que pour el- le|
 C,2 F,3 E, D,C, | B,,2 C,3 B,, A,,G,, | F,,2 C,2 C,2 C,2 | D,2 B,,2 C,4 | F,,4 z2 F,,2 | %43
w: sous- tien, _ _ _|_ _ _ _ _|* que pour el-|le sous- *|tien,- que|
 F,,2 F,,2 B,,4 | A,,4 G,,4 | z2 C,2 C,2 C,2 | D,2 B,,2 C,3 B,,/A,,/ | B,,2 C,2 F,,2 B,,2 | %48
w: cel- luy la|_ _|que * el-|le sous- tien, _ _|_ _ _ que|
 B,,2 B,,2 C,2 A,,2 | D,2 z D, D,D, _E,2 | C,2 F,3 E, D,C, | B,,2 C,3 B,, A,,G,, | %52
w: pour el- le sous-|tien, que pour el- le|sous- tien, _ _ _|_ _ _ _ _|
 F,,2 C,2 C,2 C,2 | D,2 B,,2 C,4 | F,,8 |] %55
w: * que pour el-|le sous- *|tien|

